X: 188
%
T: Foot It Feathy
C:
O:Scotland
B:Keith Norman MacDonald : "The Skye collection of the best reels & strathspeys extant" : 1887
Z:Ralph Palmer
R:Reel
M:C
L:1/8
K:A
g | a2 AB cdef | =g2 d=c BGG>g | a2 AB cdef | gfed cAA>e :| cAeA aAef | =g2 d=c BGGB |
cAeA aAef | gfed cAAe | cAeA aAef | =g2 d=c BGGB | AcBd ceef | eagb aA A2 |]
W:I am indebted to Miss L. Duff Stuart for this excellent old tune.


